X:1
T:The Mistletoe Bough
M:3/4
L:1/4
K:A
 E/2| E/2E/2E/2 E/2E/2 E/2| F F/2 E E/2| F/2F/2F/2 G/2F/2 E/2| B B/2 A E/2|\
 E/2E/2E/2 E/2E/2 E/2| F F/2 E3/2| F/2F/2F/2G/2-F/2 E/2| B B/2 A E/2|\
